report_00007_2020-12-11T15:55:29.892Z/network-server-latency/comparison/line/7_vs_8.svg

<svg width="640" height="500" xmlns="http://www.w3.org/2000/svg" xmlns:xlink="http://www.w3.org/1999/xlink"><path fill="#fff" d="M0 0h640v500H0z"/><defs><path id="d" stroke-width=".222" stroke="currentColor" d="M-1-1h2v2h-2z"/><path id="b" stroke-width=".222" stroke="currentColor" d="M0-1.33l-1.33 2h2.66z"/><path id="f" stroke-width=".222" stroke="currentColor" d="M0 1.33L1.265.411.782-1.067l-1.564-.009-.483 1.487z"/><use xlink:href="#b" id="c" stroke="currentColor" transform="rotate(180)"/><use xlink:href="#d" id="e" stroke="currentColor" transform="rotate(45)"/><circle id="a" stroke-width=".222" stroke="currentColor" cx="0" cy="0" r="1"/></defs><g fill="none" color="#000" stroke="currentColor"><path stroke="#000" d="M53.9 436.3h9m552.1 0h-9"/><text transform="translate(45.6 440.2)" stroke="none" fill="#000" font-family="Arial" font-size="12" text-anchor="end"><tspan>3.5</tspan></text></g><g fill="none" color="#000" stroke="currentColor"><path stroke="#000" d="M53.9 391.6h9m552.1 0h-9"/><text transform="translate(45.6 395.5)" stroke="none" fill="#000" font-family="Arial" font-size="12" text-anchor="end"><tspan>4</tspan></text></g><g fill="none" color="#000" stroke="currentColor"><path stroke="#000" d="M53.9 346.9h9m552.1 0h-9"/><text transform="translate(45.6 350.8)" stroke="none" fill="#000" font-family="Arial" font-size="12" text-anchor="end"><tspan>4.5</tspan></text></g><g fill="none" color="#000" stroke="currentColor"><path stroke="#000" d="M53.9 302.2h9m552.1 0h-9"/><text transform="translate(45.6 306.1)" stroke="none" fill="#000" font-family="Arial" font-size="12" text-anchor="end"><tspan>5</tspan></text></g><g fill="none" color="#000" stroke="currentColor"><path stroke="#000" d="M53.9 257.6h9m552.1 0h-9"/><text transform="translate(45.6 261.5)" stroke="none" fill="#000" font-family="Arial" font-size="12" text-anchor="end"><tspan>5.5</tspan></text></g><g fill="none" color="#000" stroke="currentColor"><path stroke="#000" d="M53.9 212.9h9m552.1 0h-9"/><text transform="translate(45.6 216.8)" stroke="none" fill="#000" font-family="Arial" font-size="12" text-anchor="end"><tspan>6</tspan></text></g><g fill="none" color="#000" stroke="currentColor"><path stroke="#000" d="M53.9 168.2h9m552.1 0h-9"/><text transform="translate(45.6 172.1)" stroke="none" fill="#000" font-family="Arial" font-size="12" text-anchor="end"><tspan>6.5</tspan></text></g><g fill="none" color="#000" stroke="currentColor"><path stroke="#000" d="M53.9 123.5h9m552.1 0h-9"/><text transform="translate(45.6 127.4)" stroke="none" fill="#000" font-family="Arial" font-size="12" text-anchor="end"><tspan>7</tspan></text></g><g fill="none" color="#000" stroke="currentColor"><path stroke="#000" d="M53.9 78.9h9m552.1 0h-9"/><text transform="translate(45.6 82.8)" stroke="none" fill="#000" font-family="Arial" font-size="12" text-anchor="end"><tspan>7.5</tspan></text></g><g fill="none" color="#000" stroke="currentColor"><path stroke="#000" d="M53.9 34.2h9m552.1 0h-9"/><text transform="translate(45.6 38.1)" stroke="none" fill="#000" font-family="Arial" font-size="12" text-anchor="end"><tspan>8</tspan></text></g><g fill="none" color="#000" stroke="currentColor"><path stroke="#000" d="M53.9 446v-9m0-418.9v9"/><text transform="translate(53.9 467.9)" stroke="none" fill="#000" font-family="Arial" font-size="12" text-anchor="middle"><tspan>0</tspan></text></g><g fill="none" color="#000" stroke="currentColor"><path stroke="#000" d="M110.6 446v-9m0-418.9v9"/><text transform="translate(110.6 467.9)" stroke="none" fill="#000" font-family="Arial" font-size="12" text-anchor="middle"><tspan>10</tspan></text></g><g fill="none" color="#000" stroke="currentColor"><path stroke="#000" d="M167.3 446v-9m0-418.9v9"/><text transform="translate(167.3 467.9)" stroke="none" fill="#000" font-family="Arial" font-size="12" text-anchor="middle"><tspan>20</tspan></text></g><g fill="none" color="#000" stroke="currentColor"><path stroke="#000" d="M223.9 446v-9m0-418.9v9"/><text transform="translate(223.9 467.9)" stroke="none" fill="#000" font-family="Arial" font-size="12" text-anchor="middle"><tspan>30</tspan></text></g><g fill="none" color="#000" stroke="currentColor"><path stroke="#000" d="M280.6 446v-9m0-418.9v9"/><text transform="translate(280.6 467.9)" stroke="none" fill="#000" font-family="Arial" font-size="12" text-anchor="middle"><tspan>40</tspan></text></g><g fill="none" color="#000" stroke="currentColor"><path stroke="#000" d="M337.3 446v-9m0-418.9v9"/><text transform="translate(337.3 467.9)" stroke="none" fill="#000" font-family="Arial" font-size="12" text-anchor="middle"><tspan>50</tspan></text></g><g fill="none" color="#000" stroke="currentColor"><path stroke="#000" d="M394 446v-9m0-418.9v9"/><text transform="translate(394 467.9)" stroke="none" fill="#000" font-family="Arial" font-size="12" text-anchor="middle"><tspan>60</tspan></text></g><g fill="none" color="#000" stroke="currentColor"><path stroke="#000" d="M450.6 446v-9m0-418.9v9"/><text transform="translate(450.6 467.9)" stroke="none" fill="#000" font-family="Arial" font-size="12" text-anchor="middle"><tspan>70</tspan></text></g><g fill="none" color="#000" stroke="currentColor"><path stroke="#000" d="M507.3 446v-9m0-418.9v9"/><text transform="translate(507.3 467.9)" stroke="none" fill="#000" font-family="Arial" font-size="12" text-anchor="middle"><tspan>80</tspan></text></g><g fill="none" color="#000" stroke="currentColor"><path stroke="#000" d="M564 446v-9m0-418.9v9"/><text transform="translate(564 467.9)" stroke="none" fill="#000" font-family="Arial" font-size="12" text-anchor="middle"><tspan>90</tspan></text></g><path stroke="#000" d="M53.9 18.1V446H615V18.1H53.9z" fill="none" color="#000"/><text transform="translate(275.6 485.9)" stroke="none" fill="#000" font-family="Arial" font-size="12" text-anchor="end" color="#000"><tspan>pages+cached+noexternal+nosvg</tspan></text><path stroke="#9400D3" d="M283.9 482h42.2M53.9 188.1l5.7 61.9 5.6 7.7 5.7-60.1 5.7 71.7 5.6-47.4 5.7 45.9 5.7-23.3 5.6 6.1 5.7-26.2 5.7-11.8 5.6 126.6 5.7-143.6 5.7 106.7 5.6-25.3 5.7-29.4 5.7-173.4 5.7 152.1 5.6-129.4 5.7 107.9 5.7 101.9 5.6-53.4 5.7 45.9 5.7-14.9 5.6-47.5 5.7-136.7 5.7 138.9 5.6 82.3 5.7-158.2 5.7 26.1 5.6-31.1 5.7 55.5 5.7-83.1 5.6 264.5 5.7-104.6 5.7-264.1 5.6 295.7 5.7-90.3 5.7-70.8 5.6 72.2 5.7 42.3 5.7-46.5 5.6-54.1 5.7 43.8 5.7 44.5 5.6-59.6 5.7-13.3 5.7-15.9 5.6-33.3 5.7 72.6 5.7 37.6 5.7-27.5 5.6 35.3 5.7-24 5.7-32.2 5.6 45.1 5.7-183.3 5.7 174.3 5.6-122.7 5.7 131.3 5.7-76.1 5.6 47.6 5.7-6.9L411 63.9l5.6 215.1 5.7 7.7 5.7-111.9 5.6 55.4 5.7-57.1 5.7-3.8 5.6-63.4 5.7 94.4 5.7-81.4 5.6 93.8 5.7 110.5 5.7-68.1 5.6-57.3 5.7-10.1 5.7 80.9 5.6-24.1 5.7-58.4 5.7 82.5 5.6-94 5.7 37.8 5.7-47.3 5.7-55.5 5.6 111.7 5.7 7.7 5.7 72.1 5.6-63.1 5.7-101.5 5.7 119.4 5.6 62.4 5.7-168.8 5.7 44.4 5.6 27.6 5.7-13.4 5.7 45.7 5.6 45 5.7-43.3" fill="none" color="#000"/><text transform="translate(575.1 485.9)" stroke="none" fill="#000" font-family="Arial" font-size="12" text-anchor="end" color="#000"><tspan>pages+cached+noexternal+noimg</tspan></text><path stroke="#009E73" d="M583.4 482h42.2M53.9 346.1l5.7-41 5.6 24.3 5.7 10.1 5.7-48.7 5.6 78.7 5.7-21.3 5.7.8 5.6 32.2 5.7-7 5.7-5.9 5.6-29.2 5.7-49.5 5.7 89.5 5.6-80.3 5.7-51.3 5.7 113.6 5.7-53 5.6 48.8 5.7-7.8 5.7-.6 5.6-20.5 5.7 7.4 5.7-7.1 5.6 57.1 5.7-24.5 5.7-9.1 5.6 6.5 5.7-10.6 5.7-74.3 5.6 65.6 5.7-46 5.7 55.2 5.6-19.1 5.7 102.5 5.7-240.2 5.6 111 5.7 95.4 5.7-28.8 5.6-23.8 5.7 2.2 5.7-55.7 5.6-9.8 5.7 92.3 5.7 41.8 5.6-61.9 5.7 38.1 5.7-62.3 5.6 51.4 5.7-65.1 5.7 121.6 5.7-68.1 5.6-20.2 5.7-23 5.7 57.6 5.6-13.4 5.7 35.2 5.7-50.7 5.6-11.9 5.7 40.5 5.7-1.1 5.6-51.4 5.7 42.3 5.7-13.8 5.6-36 5.7 35.2 5.7-14.8 5.6 69.6 5.7-71.8 5.7-14.5 5.6-56.4 5.7 5.3 5.7 122.2 5.6-50.6 5.7-55.7 5.7 64.2 5.6-10.8 5.7 9.2 5.7-7.5 5.6-8.6 5.7 8.3 5.7 11.6 5.6-2.1 5.7 27.3 5.7-16.2 5.7-27.9 5.6-27.4 5.7-4.7 5.7 9.7 5.6 12.5 5.7-13.5 5.7 55.1 5.6-41.8 5.7 2.1 5.7 23.7 5.6-7.6 5.7 19.8 5.7-10.5 5.6 30.1 5.7-18.6" fill="none" color="#000"/><g fill="none" color="#000" stroke="currentColor"><path stroke="#000" d="M53.9 18.1V446H615V18.1H53.9z"/></g></svg>

<?xml version="1.0" encoding="utf-8"  standalone="no"?>
<svg 
 width="640" height="500"
 viewBox="0 0 640 500"
 xmlns="http://www.w3.org/2000/svg"
 xmlns:xlink="http://www.w3.org/1999/xlink"
>

<title>Gnuplot</title>
<desc>Produced by GNUPLOT 5.4 patchlevel 0 </desc>

<g id="gnuplot_canvas">

<rect x="0" y="0" width="640" height="500" fill="#ffffff"/>
<defs>

	<circle id='gpDot' r='0.5' stroke-width='0.5' stroke='currentColor'/>
	<path id='gpPt0' stroke-width='0.222' stroke='currentColor' d='M-1,0 h2 M0,-1 v2'/>
	<path id='gpPt1' stroke-width='0.222' stroke='currentColor' d='M-1,-1 L1,1 M1,-1 L-1,1'/>
	<path id='gpPt2' stroke-width='0.222' stroke='currentColor' d='M-1,0 L1,0 M0,-1 L0,1 M-1,-1 L1,1 M-1,1 L1,-1'/>
	<rect id='gpPt3' stroke-width='0.222' stroke='currentColor' x='-1' y='-1' width='2' height='2'/>
	<rect id='gpPt4' stroke-width='0.222' stroke='currentColor' fill='currentColor' x='-1' y='-1' width='2' height='2'/>
	<circle id='gpPt5' stroke-width='0.222' stroke='currentColor' cx='0' cy='0' r='1'/>
	<use xlink:href='#gpPt5' id='gpPt6' fill='currentColor' stroke='none'/>
	<path id='gpPt7' stroke-width='0.222' stroke='currentColor' d='M0,-1.33 L-1.33,0.67 L1.33,0.67 z'/>
	<use xlink:href='#gpPt7' id='gpPt8' fill='currentColor' stroke='none'/>
	<use xlink:href='#gpPt7' id='gpPt9' stroke='currentColor' transform='rotate(180)'/>
	<use xlink:href='#gpPt9' id='gpPt10' fill='currentColor' stroke='none'/>
	<use xlink:href='#gpPt3' id='gpPt11' stroke='currentColor' transform='rotate(45)'/>
	<use xlink:href='#gpPt11' id='gpPt12' fill='currentColor' stroke='none'/>
	<path id='gpPt13' stroke-width='0.222' stroke='currentColor' d='M0,1.330 L1.265,0.411 L0.782,-1.067 L-0.782,-1.076 L-1.265,0.411 z'/>
	<use xlink:href='#gpPt13' id='gpPt14' fill='currentColor' stroke='none'/>
	<filter id='textbox' filterUnits='objectBoundingBox' x='0' y='0' height='1' width='1'>
	  <feFlood flood-color='#FFFFFF' flood-opacity='1' result='bgnd'/>
	  <feComposite in='SourceGraphic' in2='bgnd' operator='atop'/>
	</filter>
	<filter id='greybox' filterUnits='objectBoundingBox' x='0' y='0' height='1' width='1'>
	  <feFlood flood-color='lightgrey' flood-opacity='1' result='grey'/>
	  <feComposite in='SourceGraphic' in2='grey' operator='atop'/>
	</filter>
</defs>
<g fill="none" color="#FFFFFF" stroke="black" stroke-width="1.00" stroke-linecap="butt" stroke-linejoin="miter">
</g>
<g fill="none" color="black" stroke="currentColor" stroke-width="1.00" stroke-linecap="butt" stroke-linejoin="miter">
	<path stroke='black'  d='M53.9,436.3 L62.9,436.3 M615.0,436.3 L606.0,436.3  '/>	<g transform="translate(45.6,440.2)" stroke="none" fill="black" font-family="Arial" font-size="12.00"  text-anchor="end">
		<text><tspan font-family="Arial" > 3.5</tspan></text>
	</g>
</g>
<g fill="none" color="black" stroke="currentColor" stroke-width="1.00" stroke-linecap="butt" stroke-linejoin="miter">
	<path stroke='black'  d='M53.9,391.6 L62.9,391.6 M615.0,391.6 L606.0,391.6  '/>	<g transform="translate(45.6,395.5)" stroke="none" fill="black" font-family="Arial" font-size="12.00"  text-anchor="end">
		<text><tspan font-family="Arial" > 4</tspan></text>
	</g>
</g>
<g fill="none" color="black" stroke="currentColor" stroke-width="1.00" stroke-linecap="butt" stroke-linejoin="miter">
	<path stroke='black'  d='M53.9,346.9 L62.9,346.9 M615.0,346.9 L606.0,346.9  '/>	<g transform="translate(45.6,350.8)" stroke="none" fill="black" font-family="Arial" font-size="12.00"  text-anchor="end">
		<text><tspan font-family="Arial" > 4.5</tspan></text>
	</g>
</g>
<g fill="none" color="black" stroke="currentColor" stroke-width="1.00" stroke-linecap="butt" stroke-linejoin="miter">
	<path stroke='black'  d='M53.9,302.2 L62.9,302.2 M615.0,302.2 L606.0,302.2  '/>	<g transform="translate(45.6,306.1)" stroke="none" fill="black" font-family="Arial" font-size="12.00"  text-anchor="end">
		<text><tspan font-family="Arial" > 5</tspan></text>
	</g>
</g>
<g fill="none" color="black" stroke="currentColor" stroke-width="1.00" stroke-linecap="butt" stroke-linejoin="miter">
	<path stroke='black'  d='M53.9,257.6 L62.9,257.6 M615.0,257.6 L606.0,257.6  '/>	<g transform="translate(45.6,261.5)" stroke="none" fill="black" font-family="Arial" font-size="12.00"  text-anchor="end">
		<text><tspan font-family="Arial" > 5.5</tspan></text>
	</g>
</g>
<g fill="none" color="black" stroke="currentColor" stroke-width="1.00" stroke-linecap="butt" stroke-linejoin="miter">
	<path stroke='black'  d='M53.9,212.9 L62.9,212.9 M615.0,212.9 L606.0,212.9  '/>	<g transform="translate(45.6,216.8)" stroke="none" fill="black" font-family="Arial" font-size="12.00"  text-anchor="end">
		<text><tspan font-family="Arial" > 6</tspan></text>
	</g>
</g>
<g fill="none" color="black" stroke="currentColor" stroke-width="1.00" stroke-linecap="butt" stroke-linejoin="miter">
	<path stroke='black'  d='M53.9,168.2 L62.9,168.2 M615.0,168.2 L606.0,168.2  '/>	<g transform="translate(45.6,172.1)" stroke="none" fill="black" font-family="Arial" font-size="12.00"  text-anchor="end">
		<text><tspan font-family="Arial" > 6.5</tspan></text>
	</g>
</g>
<g fill="none" color="black" stroke="currentColor" stroke-width="1.00" stroke-linecap="butt" stroke-linejoin="miter">
	<path stroke='black'  d='M53.9,123.5 L62.9,123.5 M615.0,123.5 L606.0,123.5  '/>	<g transform="translate(45.6,127.4)" stroke="none" fill="black" font-family="Arial" font-size="12.00"  text-anchor="end">
		<text><tspan font-family="Arial" > 7</tspan></text>
	</g>
</g>
<g fill="none" color="black" stroke="currentColor" stroke-width="1.00" stroke-linecap="butt" stroke-linejoin="miter">
	<path stroke='black'  d='M53.9,78.9 L62.9,78.9 M615.0,78.9 L606.0,78.9  '/>	<g transform="translate(45.6,82.8)" stroke="none" fill="black" font-family="Arial" font-size="12.00"  text-anchor="end">
		<text><tspan font-family="Arial" > 7.5</tspan></text>
	</g>
</g>
<g fill="none" color="black" stroke="currentColor" stroke-width="1.00" stroke-linecap="butt" stroke-linejoin="miter">
	<path stroke='black'  d='M53.9,34.2 L62.9,34.2 M615.0,34.2 L606.0,34.2  '/>	<g transform="translate(45.6,38.1)" stroke="none" fill="black" font-family="Arial" font-size="12.00"  text-anchor="end">
		<text><tspan font-family="Arial" > 8</tspan></text>
	</g>
</g>
<g fill="none" color="black" stroke="currentColor" stroke-width="1.00" stroke-linecap="butt" stroke-linejoin="miter">
	<path stroke='black'  d='M53.9,446.0 L53.9,437.0 M53.9,18.1 L53.9,27.1  '/>	<g transform="translate(53.9,467.9)" stroke="none" fill="black" font-family="Arial" font-size="12.00"  text-anchor="middle">
		<text><tspan font-family="Arial" > 0</tspan></text>
	</g>
</g>
<g fill="none" color="black" stroke="currentColor" stroke-width="1.00" stroke-linecap="butt" stroke-linejoin="miter">
	<path stroke='black'  d='M110.6,446.0 L110.6,437.0 M110.6,18.1 L110.6,27.1  '/>	<g transform="translate(110.6,467.9)" stroke="none" fill="black" font-family="Arial" font-size="12.00"  text-anchor="middle">
		<text><tspan font-family="Arial" > 10</tspan></text>
	</g>
</g>
<g fill="none" color="black" stroke="currentColor" stroke-width="1.00" stroke-linecap="butt" stroke-linejoin="miter">
	<path stroke='black'  d='M167.3,446.0 L167.3,437.0 M167.3,18.1 L167.3,27.1  '/>	<g transform="translate(167.3,467.9)" stroke="none" fill="black" font-family="Arial" font-size="12.00"  text-anchor="middle">
		<text><tspan font-family="Arial" > 20</tspan></text>
	</g>
</g>
<g fill="none" color="black" stroke="currentColor" stroke-width="1.00" stroke-linecap="butt" stroke-linejoin="miter">
	<path stroke='black'  d='M223.9,446.0 L223.9,437.0 M223.9,18.1 L223.9,27.1  '/>	<g transform="translate(223.9,467.9)" stroke="none" fill="black" font-family="Arial" font-size="12.00"  text-anchor="middle">
		<text><tspan font-family="Arial" > 30</tspan></text>
	</g>
</g>
<g fill="none" color="black" stroke="currentColor" stroke-width="1.00" stroke-linecap="butt" stroke-linejoin="miter">
	<path stroke='black'  d='M280.6,446.0 L280.6,437.0 M280.6,18.1 L280.6,27.1  '/>	<g transform="translate(280.6,467.9)" stroke="none" fill="black" font-family="Arial" font-size="12.00"  text-anchor="middle">
		<text><tspan font-family="Arial" > 40</tspan></text>
	</g>
</g>
<g fill="none" color="black" stroke="currentColor" stroke-width="1.00" stroke-linecap="butt" stroke-linejoin="miter">
	<path stroke='black'  d='M337.3,446.0 L337.3,437.0 M337.3,18.1 L337.3,27.1  '/>	<g transform="translate(337.3,467.9)" stroke="none" fill="black" font-family="Arial" font-size="12.00"  text-anchor="middle">
		<text><tspan font-family="Arial" > 50</tspan></text>
	</g>
</g>
<g fill="none" color="black" stroke="currentColor" stroke-width="1.00" stroke-linecap="butt" stroke-linejoin="miter">
	<path stroke='black'  d='M394.0,446.0 L394.0,437.0 M394.0,18.1 L394.0,27.1  '/>	<g transform="translate(394.0,467.9)" stroke="none" fill="black" font-family="Arial" font-size="12.00"  text-anchor="middle">
		<text><tspan font-family="Arial" > 60</tspan></text>
	</g>
</g>
<g fill="none" color="black" stroke="currentColor" stroke-width="1.00" stroke-linecap="butt" stroke-linejoin="miter">
	<path stroke='black'  d='M450.6,446.0 L450.6,437.0 M450.6,18.1 L450.6,27.1  '/>	<g transform="translate(450.6,467.9)" stroke="none" fill="black" font-family="Arial" font-size="12.00"  text-anchor="middle">
		<text><tspan font-family="Arial" > 70</tspan></text>
	</g>
</g>
<g fill="none" color="black" stroke="currentColor" stroke-width="1.00" stroke-linecap="butt" stroke-linejoin="miter">
	<path stroke='black'  d='M507.3,446.0 L507.3,437.0 M507.3,18.1 L507.3,27.1  '/>	<g transform="translate(507.3,467.9)" stroke="none" fill="black" font-family="Arial" font-size="12.00"  text-anchor="middle">
		<text><tspan font-family="Arial" > 80</tspan></text>
	</g>
</g>
<g fill="none" color="black" stroke="currentColor" stroke-width="1.00" stroke-linecap="butt" stroke-linejoin="miter">
	<path stroke='black'  d='M564.0,446.0 L564.0,437.0 M564.0,18.1 L564.0,27.1  '/>	<g transform="translate(564.0,467.9)" stroke="none" fill="black" font-family="Arial" font-size="12.00"  text-anchor="middle">
		<text><tspan font-family="Arial" > 90</tspan></text>
	</g>
</g>
<g fill="none" color="black" stroke="currentColor" stroke-width="1.00" stroke-linecap="butt" stroke-linejoin="miter">
</g>
<g fill="none" color="black" stroke="currentColor" stroke-width="1.00" stroke-linecap="butt" stroke-linejoin="miter">
	<path stroke='black'  d='M53.9,18.1 L53.9,446.0 L615.0,446.0 L615.0,18.1 L53.9,18.1 Z  '/></g>
<g fill="none" color="black" stroke="currentColor" stroke-width="1.00" stroke-linecap="butt" stroke-linejoin="miter">
</g>
	<g id="gnuplot_plot_1" ><title>pages+cached+noexternal+nosvg</title>
<g fill="none" color="black" stroke="currentColor" stroke-width="1.00" stroke-linecap="butt" stroke-linejoin="miter">
	<g transform="translate(275.6,485.9)" stroke="none" fill="black" font-family="Arial" font-size="12.00"  text-anchor="end">
		<text><tspan font-family="Arial" >pages+cached+noexternal+nosvg</tspan></text>
	</g>
</g>
<g fill="none" color="black" stroke="currentColor" stroke-width="1.00" stroke-linecap="butt" stroke-linejoin="miter">
	<path stroke='rgb(148,   0, 211)'  d='M283.9,482.0 L326.1,482.0 M53.9,188.1 L59.6,250.0 L65.2,257.7 L70.9,197.6 L76.6,269.3 L82.2,221.9
		L87.9,267.8 L93.6,244.5 L99.2,250.6 L104.9,224.4 L110.6,212.6 L116.2,339.2 L121.9,195.6 L127.6,302.3
		L133.2,277.0 L138.9,247.6 L144.6,74.2 L150.3,226.3 L155.9,96.9 L161.6,204.8 L167.3,306.7 L172.9,253.3
		L178.6,299.2 L184.3,284.3 L189.9,236.8 L195.6,100.1 L201.3,239.0 L206.9,321.3 L212.6,163.1 L218.3,189.2
		L223.9,158.1 L229.6,213.6 L235.3,130.5 L240.9,395.0 L246.6,290.4 L252.3,26.3 L257.9,322.0 L263.6,231.7
		L269.3,160.9 L274.9,233.1 L280.6,275.4 L286.3,228.9 L291.9,174.8 L297.6,218.6 L303.3,263.1 L308.9,203.5
		L314.6,190.2 L320.3,174.3 L325.9,141.0 L331.6,213.6 L337.3,251.2 L343.0,223.7 L348.6,259.0 L354.3,235.0
		L360.0,202.8 L365.6,247.9 L371.3,64.6 L377.0,238.9 L382.6,116.2 L388.3,247.5 L394.0,171.4 L399.6,219.0
		L405.3,212.1 L411.0,63.9 L416.6,279.0 L422.3,286.7 L428.0,174.8 L433.6,230.2 L439.3,173.1 L445.0,169.3
		L450.6,105.9 L456.3,200.3 L462.0,118.9 L467.6,212.7 L473.3,323.2 L479.0,255.1 L484.6,197.8 L490.3,187.7
		L496.0,268.6 L501.6,244.5 L507.3,186.1 L513.0,268.6 L518.6,174.6 L524.3,212.4 L530.0,165.1 L535.7,109.6
		L541.3,221.3 L547.0,229.0 L552.7,301.1 L558.3,238.0 L564.0,136.5 L569.7,255.9 L575.3,318.3 L581.0,149.5
		L586.7,193.9 L592.3,221.5 L598.0,208.1 L603.7,253.8 L609.3,298.8 L615.0,255.5  '/></g>
	</g>
	<g id="gnuplot_plot_2" ><title>pages+cached+noexternal+noimg</title>
<g fill="none" color="black" stroke="currentColor" stroke-width="1.00" stroke-linecap="butt" stroke-linejoin="miter">
	<g transform="translate(575.1,485.9)" stroke="none" fill="black" font-family="Arial" font-size="12.00"  text-anchor="end">
		<text><tspan font-family="Arial" >pages+cached+noexternal+noimg</tspan></text>
	</g>
</g>
<g fill="none" color="black" stroke="currentColor" stroke-width="1.00" stroke-linecap="butt" stroke-linejoin="miter">
	<path stroke='rgb(  0, 158, 115)'  d='M583.4,482.0 L625.6,482.0 M53.9,346.1 L59.6,305.1 L65.2,329.4 L70.9,339.5 L76.6,290.8 L82.2,369.5
		L87.9,348.2 L93.6,349.0 L99.2,381.2 L104.9,374.2 L110.6,368.3 L116.2,339.1 L121.9,289.6 L127.6,379.1
		L133.2,298.8 L138.9,247.5 L144.6,361.1 L150.3,308.1 L155.9,356.9 L161.6,349.1 L167.3,348.5 L172.9,328.0
		L178.6,335.4 L184.3,328.3 L189.9,385.4 L195.6,360.9 L201.3,351.8 L206.9,358.3 L212.6,347.7 L218.3,273.4
		L223.9,339.0 L229.6,293.0 L235.3,348.2 L240.9,329.1 L246.6,431.6 L252.3,191.4 L257.9,302.4 L263.6,397.8
		L269.3,369.0 L274.9,345.2 L280.6,347.4 L286.3,291.7 L291.9,281.9 L297.6,374.2 L303.3,416.0 L308.9,354.1
		L314.6,392.2 L320.3,329.9 L325.9,381.3 L331.6,316.2 L337.3,437.8 L343.0,369.7 L348.6,349.5 L354.3,326.5
		L360.0,384.1 L365.6,370.7 L371.3,405.9 L377.0,355.2 L382.6,343.3 L388.3,383.8 L394.0,382.7 L399.6,331.3
		L405.3,373.6 L411.0,359.8 L416.6,323.8 L422.3,359.0 L428.0,344.2 L433.6,413.8 L439.3,342.0 L445.0,327.5
		L450.6,271.1 L456.3,276.4 L462.0,398.6 L467.6,348.0 L473.3,292.3 L479.0,356.5 L484.6,345.7 L490.3,354.9
		L496.0,347.4 L501.6,338.8 L507.3,347.1 L513.0,358.7 L518.6,356.6 L524.3,383.9 L530.0,367.7 L535.7,339.8
		L541.3,312.4 L547.0,307.7 L552.7,317.4 L558.3,329.9 L564.0,316.4 L569.7,371.5 L575.3,329.7 L581.0,331.8
		L586.7,355.5 L592.3,347.9 L598.0,367.7 L603.7,357.2 L609.3,387.3 L615.0,368.7  '/></g>
	</g>
<g fill="none" color="#FFFFFF" stroke="rgb(  0, 158, 115)" stroke-width="2.00" stroke-linecap="butt" stroke-linejoin="miter">
</g>
<g fill="none" color="black" stroke="currentColor" stroke-width="2.00" stroke-linecap="butt" stroke-linejoin="miter">
</g>
<g fill="none" color="black" stroke="black" stroke-width="1.00" stroke-linecap="butt" stroke-linejoin="miter">
</g>
<g fill="none" color="black" stroke="currentColor" stroke-width="1.00" stroke-linecap="butt" stroke-linejoin="miter">
	<path stroke='black'  d='M53.9,18.1 L53.9,446.0 L615.0,446.0 L615.0,18.1 L53.9,18.1 Z  '/></g>
<g fill="none" color="black" stroke="currentColor" stroke-width="1.00" stroke-linecap="butt" stroke-linejoin="miter">
</g>
</g>
</svg>
